source/img/form-mobile/checkbox-active.svg

<svg width="38" height="38" viewBox="0 0 38 38" fill="none" xmlns="http://www.w3.org/2000/svg">
<rect x="1" y="1" width="36" height="36" stroke="#444444" stroke-width="2"/>
<path d="M30.963 12.6838L29.9687 11.6923L15.7655 25.7862L8.73497 18.7747L7.74074 19.7662L14.7713 26.7777L15.7655 27.7692L16.8308 26.7777L30.963 12.6838Z" fill="black"/>
</svg>

<svg width="38" height="38" fill="none" xmlns="http://www.w3.org/2000/svg"><path stroke="#444" stroke-width="2" d="M1 1h36v36H1z"/><path d="M30.963 12.684l-.994-.992-14.204 14.094-7.03-7.011-.994.991 7.03 7.012.994.991 1.066-.991 14.132-14.094z" fill="#000"/></svg>
